!! 00008] TT[TB
!! Eigene Aufnahme
!!!OTL: Hei duanzi kan jian
!!!ARE: Neimeng Erduos
!! Ethnic Group: Menggu
!! IV, 348
!!!SCT: C0197
!!!YEM: Copyright 1995, estate of Helmut Schaffrath.
**kern
*ICvox
*Ivox
*M2/4
*k[f#c#]
*D:
{8a
8b
16ff#
8dd
16ff#
=1
8.b
16dd
16b
16a
8f#
=2
8a
8b
16ff#
8dd
16ff#
=3
8.b
16dd
4b}
=4
{8a
8b
16ff#
8dd
16ff#
=5
8.b
16dd
16b
16a
8f#
=6
16d
16e
8f#
16b
16dd
8a
=7
2f#}
=8
{8a
8b
16ff#
8dd
16ff#
=9
8.b
16dd
16b
16a
8f#
=10
16d
16e
8f#
16b
16dd
8a
=11
8.f#
16a
4f#}
=12
{8.f#
16dd
8b
16a
16a
=13
8b
8f#
8e
8f#
=14
8b
8B
16e
16f#
8d
=15
2B}
=16
{8.f#
16d
8e
8B
=17
8.a
16dd
4b
=18
16d
16e
8f#
16e
16f#
8d
=19
2B}
==
!!!AGN: Duan ge. Biaoda aiqing
!! wird auch als "Schnapslied" gesungen. Saenger: Chao Lun Batou
!!    Leichte Variante. Phrasenenden bei 1 und 3 nicht gesungen.
!!!ONB: ESAC (Essen Associative Code) Database: CHINA
!!!AMT: simple duple
!!!AIN: vox
!!!EED: Helmut Schaffrath
!!!EEV: 1.0
*-
